src/Icon/svgs/project.svg

<svg width="24" height="24" viewBox="0 0 24 24" fill="none" xmlns="http://www.w3.org/2000/svg">
<path fill-rule="evenodd" clip-rule="evenodd" d="M19.3817 14.9995H12.0007V13.9995H15.0007C15.5527 13.9995 16.0007 13.5515 16.0007 12.9995V8.99954H19.3817L18.1057 11.5515C17.9647 11.8335 17.9647 12.1655 18.1057 12.4465L19.3817 14.9995ZM4.69174 5.99954H14.0007V11.9995H6.02574L4.69174 5.99954ZM20.1187 11.9995L21.8947 8.44654C22.0497 8.13654 22.0337 7.76854 21.8507 7.47354C21.6687 7.17854 21.3467 6.99954 21.0007 6.99954H16.0007V4.99954C16.0007 4.44654 15.5527 3.99954 15.0007 3.99954H4.24774L3.97674 2.78254C3.85674 2.24354 3.32174 1.90754 2.78374 2.02254C2.24474 2.14254 1.90474 2.67654 2.02374 3.21654L6.02374 21.2165C6.12674 21.6815 6.54174 21.9995 6.99974 21.9995C7.07174 21.9995 7.14374 21.9915 7.21674 21.9755C7.75574 21.8555 8.09574 21.3215 7.97674 20.7825L6.46974 13.9995H10.0007V15.9995C10.0007 16.5515 10.4477 16.9995 11.0007 16.9995H21.0007C21.3467 16.9995 21.6687 16.8195 21.8507 16.5245C22.0337 16.2295 22.0497 15.8615 21.8947 15.5515L20.1187 11.9995Z" fill="#1B1C1D"/>
</svg>

<svg xmlns="http://www.w3.org/2000/svg" width="24" height="24" fill="none"  xmlns:v="https://vecta.io/nano"><path fill-rule="evenodd" d="M19.382 15h-7.381v-1h3a1 1 0 0 0 1-1V9h3.381l-1.276 2.552a1 1 0 0 0 0 .895L19.382 15zM4.692 6h9.309v6H6.026L4.692 6zm15.427 6l1.776-3.553A1 1 0 0 0 21.001 7h-5V5a1 1 0 0 0-1-1H4.248l-.271-1.217c-.12-.539-.655-.875-1.193-.76a1 1 0 0 0-.76 1.194l4 18A1 1 0 0 0 7 22a1.01 1.01 0 0 0 .217-.024 1 1 0 0 0 .76-1.193L6.47 14h3.531v2a1 1 0 0 0 1 1h10a1 1 0 0 0 .894-1.448L20.119 12z" fill="#1b1c1d"/></svg>
